X: 04029
T: GENE ROE'S REEL
C: Bob McQuillen 30 May 79
B: Bob's Note Book 04 #29
R: reel
Z: 2020 John Chambers <jc:trillian.mit.edu>
M: C
L: 1/8
K: Em
Bd \
| edBd e2dc | BdBG A2GA | BcBA GEFG | ABAF D2Bd |\
| e2Bd eged | BdBG A2GA | BedB deBA | G2E2 E2 :|
|: ef \
| g2gf e2ef | gagf e2dc | Bdeg edGA | BdBG A2ef |\
| g2gf eBef gagf e2dc | Bdeg dBGA | Beed e2 :|
%%begintext align
%% Gene Roe, from Greenville, N.H.,
%% is the wizard who tunes my
%% piano. This is your tune, Gene,
%% with many thanks.
%%endtext

%%sep 1 1 500

%%sep 1 1 500

